X: 20233
M: 6/8
L: 1/8
K: C
c2c c2e | c2c c2e | dBG GBc | dBG GAB |\
c2c c2e | c2c c2G | ABc dcB | c3 c2 :|\
|: e/f/ |\
g2e g2e | cBc cfg | a2f a2f | dcd def |
g2e g2e | cdc BAG | ABc dcB | c3 c2 (e/f/) |\
gfe gfe | cdc cfg | agf a2f | ded def |\
gfe gfe | cdc BAG | ABc dBG | c3 c2 |]


